X: 27247
T: Miss Sarah McFadyen
R: jig
M: 6/8
K: Amajor
B|:cAF EAc|dcd egb|age d2B|c/c/ce dcd|
cAF EcE|dcd egb|ace dcB|1 ABA A2B:|2 ABA A2 e||
|:f2 a ecA|BAB cAE|C/C/CE F/F/FA|dcd Bce|
f2d ecA|BAa ecA|C/C/CE F/F/FA|1 GFG A2 e:|2 GFG A3||

